X: 33783
T: Ravne Pers Vals
R: waltz
M: 3/4
K: Dmajor
|:A/B/c|d2 AB AG|FG AB A2|dB B2 BA|
GA Bc B2|dA A2 AG|FG AB AB|c2 cA ce|d4:|

